X: 30702
T: ONLY THINK OF THAT
O: Irish Melody
%R: jig
B: Elias Howe "The Musician's Companion" Part 3 1844 p.70 #2
S: http://imslp.org/wiki/The_Musician's_Companion_(Howe,_Elias)
Z: 2015 John Chambers <jc:trillian.mit.edu>
M: 6/8
L: 1/8
K: D
% - - - - - - - - - - - - - - - - - - - - - - - - -
A |\
d2f e2g | f2d (cBA) | d2f e2g | f2a a2A |\
d2f e2g | f2d cBA | B2d c2B | A2d d2 :|
|: B |\
A2G F2E | D2F G2B | A2G F2E | D2d- d2B |\
A2G FED | E2F G2g | afd [ge][ec][ecA] | B2c d2 :|
% - - - - - - - - - - - - - - - - - - - - - - - - -
